public/library/codex-text-light.svg

<svg width="252" height="55" viewBox="0 0 252 55" fill="none" xmlns="http://www.w3.org/2000/svg">
<path d="M240.558 36.8002C237.72 32.6775 234.491 30.3236 230.424 29.4115C230.221 28.306 230.12 27.265 230.12 26.2424C230.12 25.1 230.18 23.9806 230.299 22.9119C233.556 22.1104 236.186 20.2817 238.333 17.3198L250.042 0.884277H241.272L233.284 12.566C231.253 15.4819 230.005 18.6188 229.475 22.1473C228.632 22.2993 227.692 22.373 226.476 22.373C225.26 22.373 224.32 22.3039 223.477 22.1473C222.948 18.6188 221.699 15.4819 219.668 12.5706L211.676 0.884277H202.905L214.615 17.3244C216.757 20.2817 219.387 22.1104 222.644 22.9119C222.763 23.976 222.823 25.0954 222.823 26.2424C222.823 27.265 222.722 28.3014 222.519 29.4069C218.512 30.2315 215.19 32.6544 212.381 36.8002L200.925 53.6733H209.451L218.848 39.3106C221.165 35.7637 222.648 33.1059 223.293 30.1946C224.247 30.038 225.288 29.9597 226.462 29.9597C227.637 29.9597 228.678 30.038 229.631 30.1946C230.276 33.1059 231.76 35.7637 234.077 39.3106L243.474 53.6733H252L240.544 36.8002H240.558Z" fill="#111111"/>
<path d="M168.074 46.939V29.4855H194.971V22.7832H168.074V7.55456H197.564V0.852295H160.336V16.0579C160.336 21.2032 163.044 22.7832 168.074 22.7832V29.4855C163.371 29.4855 160.336 31.9729 160.336 36.805V53.6413H197.564V46.939H168.074Z" fill="#111111"/>
<path d="M142.32 8.28237C139.404 3.28446 134.715 0.852295 127.994 0.852295H110.034V53.6413H127.994C134.3 53.6413 139.012 51.1677 142.016 46.2895C149.579 43.2908 153.573 36.6576 153.573 27.0994C153.573 17.5412 149.681 11.3548 142.32 8.28237ZM131.628 47.1601H116.75V7.32885H131.628C135.507 7.32885 138.888 7.89544 141.679 9.01478C143.978 13.1098 145.097 19.029 145.097 27.0994C145.097 35.1698 143.886 41.2364 141.389 45.5479C138.538 46.6212 135.254 47.1648 131.628 47.1648V47.1601Z" fill="#111111"/>
<path d="M92.1851 8.25922C89.2692 2.77764 84.3727 0 77.6243 0C70.876 0 65.8965 2.85595 62.9853 8.48494C55.7809 11.9213 51.9714 18.3656 51.9714 27.1361C51.9714 35.9067 55.9606 42.7149 63.515 46.2388C66.6427 51.7664 71.3919 54.5671 77.6243 54.5671C84.4003 54.5671 89.3015 51.7388 92.1897 46.1604C99.4447 42.807 103.277 36.2291 103.277 27.1361C103.277 18.0432 99.546 11.6587 92.1851 8.25922ZM77.6243 48.0122C72.4283 48.0122 67.9003 47.1739 64.1737 45.5248C61.7047 40.9322 60.4518 34.7459 60.4518 27.1361C60.4518 19.5264 61.5343 13.3999 63.6624 9.18511C67.412 7.41626 72.2349 6.48116 77.6243 6.48116C83.0138 6.48116 87.7814 7.31952 91.5171 8.96861C93.7236 13.2664 94.7969 19.2132 94.7969 27.1361C94.7969 35.0591 93.6913 41.2086 91.5125 45.4557C87.8366 47.1508 83.1612 48.0122 77.6243 48.0122Z" fill="#111111"/>
<path d="M39.9511 33.9351L39.9372 34.382C39.7944 38.9331 39.0851 42.7287 37.8229 45.6768C34.2069 47.2245 29.8631 48.0122 24.9113 48.0122C19.9594 48.0122 15.3623 47.1508 11.691 45.4557C9.55822 41.1027 8.47572 34.9393 8.47572 27.1315C8.47572 19.3237 9.62732 13.0959 11.9029 8.74289C15.4175 7.23661 19.789 6.47656 24.9067 6.47656C29.6973 6.47656 33.866 7.16291 37.307 8.52179C38.3895 10.954 39.1219 14.0863 39.4904 17.8405L39.5319 18.2551H48.155L47.9385 17.6424C46.4138 13.2986 42.9775 9.9037 37.9934 7.8078C35.5382 2.55654 31.2588 0 24.9113 0C18.5637 0 14.1093 2.70394 11.2442 8.03351C3.78183 11.3685 0 17.7944 0 27.1361C0 36.4779 3.80947 42.6872 11.0138 46.1558C13.8928 51.7388 18.5683 54.5671 24.9113 54.5671C31.2542 54.5671 35.9619 51.8125 38.5185 46.377C43.7836 43.9171 47.2245 39.8129 48.4775 34.5017L48.611 33.9351H39.9511Z" fill="#111111"/>
</svg>

<svg xmlns="http://www.w3.org/2000/svg" width="252" height="55" fill="none" viewBox="0 0 252 55"><path fill="#111" d="M240.558 36.8c-2.838-4.122-6.067-6.476-10.134-7.388a17.4 17.4 0 0 1-.304-3.17c0-1.142.06-2.261.179-3.33 3.257-.802 5.887-2.63 8.034-5.592L250.042.884h-8.77l-7.988 11.682c-2.031 2.916-3.279 6.053-3.809 9.581-.843.152-1.783.226-2.999.226s-2.156-.07-2.999-.226c-.529-3.528-1.778-6.665-3.809-9.576L211.676.884h-8.771l11.71 16.44c2.142 2.958 4.772 4.786 8.029 5.588.119 1.064.179 2.183.179 3.33 0 1.023-.101 2.06-.304 3.165-4.007.825-7.329 3.247-10.138 7.393l-11.456 16.873h8.526l9.397-14.362c2.317-3.547 3.8-6.205 4.445-9.116a19.5 19.5 0 0 1 3.169-.235c1.175 0 2.216.078 3.169.235.645 2.91 2.129 5.569 4.446 9.116l9.397 14.362H252L240.544 36.8zM168.074 46.939V29.486h26.897v-6.703h-26.897V7.555h29.49V.852h-37.228v15.206c0 5.145 2.708 6.725 7.738 6.725v6.702c-4.703 0-7.738 2.488-7.738 7.32v16.836h37.228V46.94zM142.32 8.282c-2.916-4.998-7.605-7.43-14.326-7.43h-17.96v52.79h17.96c6.306 0 11.018-2.474 14.022-7.353 7.563-2.998 11.557-9.631 11.557-19.19 0-9.558-3.892-15.744-11.253-18.817M131.628 47.16H116.75V7.33h14.878c3.879 0 7.26.566 10.051 1.686 2.299 4.095 3.418 10.014 3.418 18.084s-1.211 14.137-3.708 18.449c-2.851 1.073-6.135 1.617-9.761 1.617zM92.185 8.26C89.27 2.777 84.373 0 77.625 0s-11.728 2.856-14.64 8.485c-7.204 3.436-11.014 9.88-11.014 18.651s3.99 15.579 11.544 19.103c3.128 5.527 7.877 8.328 14.11 8.328 6.775 0 11.677-2.828 14.565-8.407 7.255-3.353 11.087-9.93 11.087-19.024 0-9.093-3.731-15.477-11.092-18.877m-14.56 39.752c-5.197 0-9.725-.838-13.451-2.487-2.47-4.593-3.722-10.78-3.722-18.389 0-7.61 1.082-13.736 3.21-17.95 3.75-1.77 8.573-2.705 13.962-2.705 5.39 0 10.157.839 13.893 2.488 2.207 4.297 3.28 10.244 3.28 18.167s-1.106 14.073-3.284 18.32c-3.676 1.695-8.352 2.556-13.889 2.556M39.951 33.935l-.014.447c-.143 4.551-.852 8.347-2.114 11.295-3.616 1.547-7.96 2.335-12.912 2.335s-9.549-.861-13.22-2.556C9.558 41.103 8.476 34.939 8.476 27.13s1.151-14.035 3.427-18.388c3.515-1.506 7.886-2.266 13.004-2.266 4.79 0 8.959.686 12.4 2.045 1.082 2.432 1.815 5.564 2.183 9.318l.042.415h8.623l-.217-.613c-1.524-4.343-4.96-7.738-9.945-9.834C35.538 2.557 31.26 0 24.911 0 18.564 0 14.11 2.704 11.244 8.034 3.782 11.368 0 17.794 0 27.136s3.81 15.551 11.014 19.02c2.879 5.583 7.554 8.411 13.897 8.411s11.05-2.754 13.608-8.19c5.265-2.46 8.706-6.564 9.959-11.875l.133-.567z"/></svg>
